X:860
T:Concert Reel, The
R:reel
Z:transcribed by Dave Marshall
M:C|
K:Ador
|: A3B A~E3 | GABG ~A3B | dBAB ~G3B | dBeB dBAc|
BAGB A~E3 | GABG A2Bd | eaaf gedB | GBdB BAA2 :|
|: e~a3 e~a3 | edef gedB | d~g3 a2ga | bgaf gedg|
e~a3 e~a3 | edef ged2 | gage d2ge | dBGA BAA2 :|
